X: 35931
T: Sant Hern
R: polka
M: 2/4
K: Bminor
B>c df|e2 ed|fe d>e|f2- fd/c/|
[1 B>c df|e2 ed|fe c>d|B3 F:|
[2 B>c df|e2 eg|fe c>d|B3 f||
a>g eg|f2 df|ag eg|f4|
g>f ed|ef ag|f2 ee|d3f|
a>g eg|f2 df|a/b/a/g/ eg|f4|
g>f eg|fd ef|d2 c2|B4||

